X:1
L:1/4
Q:1/4=124
M:3/4
K:Dmin
 D |""Dm"" (D A) D |""Dm"" A G A |""Dm"" F G""A7"" E |""Dm"" D2 D |""Dm"" F E D |""Gm"" G F G |""A"" A3- | 
""A"" A2 A |""Dm"" A d _d |""F"" c =B _B |""Dm"" (A D) E |""Dm"" (F E) D |""A"" A3- |""A"" A3 |""Dm"" (d e) d | 
""F"" c/ A3/2 F |""C"" G3/2 E/ C |""Dm"" D3- |""Dm"" D3- |""Dm"" D2 |]
